config/expand/iconfont/nav-menu/menu-renshiguanli.svg

<?xml version="1.0" standalone="no"?><!DOCTYPE svg PUBLIC "-//W3C//DTD SVG 1.1//EN" "http://www.w3.org/Graphics/SVG/1.1/DTD/svg11.dtd"><svg class="icon" width="48px" height="48.00px" viewBox="0 0 1024 1024" version="1.1" xmlns="http://www.w3.org/2000/svg"><path fill="#D9DDE1" d="M922.419944 188.24727A97.277142 97.277142 0 0 1 831.286621 256.021279H190.537443a97.277142 97.277142 0 0 1-91.133323-67.774009l-32.639041-120.316465a50.36652 50.36652 0 0 1 8.319755-47.998591 53.630425 53.630425 0 0 1 45.758656-19.775419h782.31302a53.630425 53.630425 0 0 1 45.694657 19.839418c10.87968 13.567601 14.079586 31.615071 8.383754 47.934592l-34.814977 120.316465z"  /><path fill="#D9DDE1" d="M988.274009 198.486969a158.459345 158.459345 0 0 1-146.427698 110.140765H185.737584a156.6034 156.6034 0 0 1-146.427699-110.076766L19.662462 128.025039c-12.92762 22.399342-19.711421 47.678599-19.647422 73.405844v675.692152A147.579665 147.579665 0 0 0 148.298684 1023.99872H875.509322a147.579665 147.579665 0 0 0 148.283644-146.875685V198.486969A125.372317 125.372317 0 0 0 1006.065487 128.025039l-17.791478 70.46193zM498.944384 780.805864h-61.054207v-117.11656H315.781764v117.11656H254.727557V496.910203h61.054207v114.556635h122.108413v-114.556635h61.054207v283.831663z m233.145151 0l-44.92668-73.853831c-9.279727-15.231553-16.895504-25.087263-22.783331-29.439135a31.103086 31.103086 0 0 0-18.879446-6.655804h-18.559454V780.805864h-60.990209V496.910203h100.477049c68.221996 0 102.332994 25.599248 102.332994 76.989739 0 19.263434-5.759831 35.838947-17.151497 49.662541a91.069325 91.069325 0 0 1-47.102616 29.119144v0.70398c13.247611 4.41587 27.839182 18.815447 43.90271 43.262729l54.014414 84.09353h-70.333934z"  /><path fill="#D9DDE1" d="M665.595488 576.01188H639.99624v63.99812h24.767273a40.958797 40.958797 0 0 0 28.479163-9.663716A31.167084 31.167084 0 0 0 703.99436 606.090996c0-20.09541-12.799624-30.143115-38.398872-30.143114z"  /></svg>

<svg class="icon" width="48" height="48" viewBox="0 0 1024 1024" xmlns="http://www.w3.org/2000/svg"><path d="M922.42 188.247a97.277 97.277 0 01-91.133 67.774h-640.75a97.277 97.277 0 01-91.133-67.774L66.765 67.931a50.367 50.367 0 018.32-47.999A53.63 53.63 0 01120.843.157h782.314a53.63 53.63 0 0145.694 19.84c10.88 13.567 14.08 31.614 8.384 47.934L922.42 188.247z"/><path d="M988.274 198.487a158.46 158.46 0 01-146.428 110.14H185.738A156.603 156.603 0 0139.31 198.552l-19.648-70.526C6.735 150.425-.049 175.704.015 201.431v675.692a147.58 147.58 0 00148.284 146.876h727.21a147.58 147.58 0 00148.284-146.876V198.487a125.372 125.372 0 00-17.728-70.462l-17.791 70.462zm-489.33 582.319H437.89V663.689H315.782v117.117h-61.054V496.91h61.054v114.557H437.89V496.91h61.054v283.832zm233.146 0l-44.927-73.854c-9.28-15.232-16.896-25.087-22.783-29.44a31.103 31.103 0 00-18.88-6.655h-18.56v109.949h-60.99V496.91h100.477c68.222 0 102.333 25.6 102.333 76.99 0 19.263-5.76 35.839-17.151 49.662a91.07 91.07 0 01-47.103 29.12v.704c13.248 4.415 27.84 18.815 43.903 43.262l54.014 84.094H732.09z"/><path d="M665.595 576.012h-25.599v63.998h24.768a40.959 40.959 0 0028.479-9.664 31.167 31.167 0 0010.751-24.255c0-20.095-12.8-30.143-38.399-30.143z"/></svg>
